Catalina-light/actions/16/system-shutdown-symbolic.svg

<?xml version="1.0" encoding="UTF-8" standalone="no"?>
<svg
   xmlns:dc="http://purl.org/dc/elements/1.1/"
   xmlns:cc="http://creativecommons.org/ns#"
   xmlns:rdf="http://www.w3.org/1999/02/22-rdf-syntax-ns#"
   xmlns:svg="http://www.w3.org/2000/svg"
   xmlns="http://www.w3.org/2000/svg"
   xmlns:sodipodi="http://sodipodi.sourceforge.net/DTD/sodipodi-0.dtd"
   xmlns:inkscape="http://www.inkscape.org/namespaces/inkscape"
   viewBox="0 0 16 16"
   id="svg3371"
   version="1.1"
   inkscape:version="0.91 r13725"
   sodipodi:docname="system-shutdown-symbolic.svg">
  <metadata
     id="metadata3379">
    <rdf:RDF>
      <cc:Work
         rdf:about="">
        <dc:format>image/svg+xml</dc:format>
        <dc:type
           rdf:resource="http://purl.org/dc/dcmitype/StillImage" />
      </cc:Work>
    </rdf:RDF>
  </metadata>
  <sodipodi:namedview
     pagecolor="#ffffff"
     bordercolor="#666666"
     borderopacity="1"
     objecttolerance="10"
     gridtolerance="10"
     guidetolerance="10"
     inkscape:pageopacity="0"
     inkscape:pageshadow="2"
     inkscape:window-width="640"
     inkscape:window-height="480"
     id="namedview3377"
     showgrid="false"
     inkscape:zoom="39.8125"
     inkscape:cx="3.0769231"
     inkscape:cy="8"
     inkscape:current-layer="svg3371" />
  <defs
     id="defs3051">
    <style
       type="text/css"
       id="current-color-scheme">
      .ColorScheme-Text {
        color:#bebebe;
      }
      </style>
  </defs>
  <path
     style="color:#bebebe;fill:currentColor;fill-opacity:1;stroke:none"
     class="ColorScheme-Text"
     d="M 7.9994102,2 C 7.4915586,2 7.0826279,2.4116128 7.0826279,2.9227867 l 0,4.6175383 c 0,0.511174 0.4089307,0.9227867 0.9167823,0.9227867 0.5078515,0 0.9167821,-0.4116127 0.9167821,-0.9227867 l 0,-4.6175383 C 8.9161923,2.4116128 8.5072617,2 7.9994102,2 Z m 2.6948388,1.8383642 a 0.91687396,0.92287901 0 0 0 -0.497785,1.6689463 c 1.263207,0.9511034 1.779518,2.5988663 1.287435,4.107482 C 10.991825,11.123409 9.605521,12.141896 8.0280595,12.154259 6.4505982,12.166624 5.0481871,11.169583 4.5328272,9.6688625 4.0174672,8.1681418 4.5092636,6.5123419 5.7575909,5.5415545 A 0.91687396,0.92287901 0 1 0 4.6366813,4.0816771 C 2.7710478,5.5325193 2.0311191,8.0298103 2.8013262,10.272639 c 0.7701981,2.242828 2.8835342,3.74567 5.2410581,3.727193 2.3575147,-0.01847 4.4483537,-1.555471 5.1837587,-3.8101 0.735416,-2.2546289 -0.04419,-4.7388965 -1.932047,-6.1603221 A 0.91687396,0.92287901 0 0 0 10.694249,3.8383642 Z"
     id="path3375"
     inkscape:connector-curvature="0" />
</svg>

<svg version="1.1" viewBox="0 0 16 16" xmlns="http://www.w3.org/2000/svg">
<defs>
<style id="current-color-scheme" type="text/css">.ColorScheme-Text {
        color:#bebebe;
      }</style>
</defs>
<path class="ColorScheme-Text" d="m7.9994 2c-0.50785 0-0.91678 0.41161-0.91678 0.92279v4.6175c0 0.51117 0.40893 0.92279 0.91678 0.92279 0.50785 0 0.91678-0.41161 0.91678-0.92279v-4.6175c0-0.51117-0.40893-0.92279-0.91678-0.92279zm2.6948 1.8384a0.91687 0.92288 0 0 0-0.49778 1.6689c1.2632 0.9511 1.7795 2.5989 1.2874 4.1075-0.49207 1.5086-1.8784 2.5271-3.4558 2.5395-1.5775 0.012365-2.9799-0.98468-3.4952-2.4854-0.51536-1.5007-0.023564-3.1565 1.2248-4.1273a0.91687 0.92288 0 1 0-1.1209-1.4599c-1.8656 1.4508-2.6056 3.9481-1.8354 6.191 0.7702 2.2428 2.8835 3.7457 5.2411 3.7272 2.3575-0.01847 4.4484-1.5555 5.1838-3.8101 0.73542-2.2546-0.04419-4.7389-1.932-6.1603a0.91687 0.92288 0 0 0-0.59985-0.19105z" color="#bebebe" fill="currentColor"/>
</svg>
